X:1
T:Title
%%score { 1 | 2 }
L:1/8
Q:1/4=100
M:4/4
K:Ab
V:1 treble nm="Grand Piano"
V:2 bass 
V:1
 [CE]4 [_C=D]2 [_DF]2 | [CE]3 [CEA] [CEA]4 | B4 F2 G2 | [CA]3 [CE] [CE]4 | [CE]4 [_C=D]2 [_DF]2 | %5
w: A.~S.~Kieffer * *|||||
 [CE]3 [CEA] [CEA]4 | [DFB]4 [CEA]2 [B,EG]2 | [CEA]6 z2 | [Ec]4 [Ec]2 [Fd]2 | c3 B B4 | B4 c2 B2 | %11
w: ||||||
 [DB]3 [CA] [CA]4 | [A,FA]4 [A,EG]2 [A,DF]2 | [A,CE]3 [CEA] [CEA]4 | [DFB]4 [CEA]2 [B,EG]2 | %15
w: ||||
 [CEA]6 z2 |] %16
w: |
V:2
 [A,,A,]4 [A,,A,]2 [A,,A,]2 | [A,,A,]3 A,, A,,4 | [E,G,D]4 [E,A,D]2 [E,B,D]2 | %3
 [A,,A,]3 [A,,A,] [A,,A,]4 | [A,,A,]4 [A,,A,]2 [A,,A,]2 | [A,,A,]3 A,, A,,4 | D,4 E,2 E,2 | %7
 A,,6 z2 | [A,,A,]4 [A,,A,]2 [A,,A,]2 | [E,A,E]3 [E,G,E] [E,G,E]4 | [E,G,E]4 [E,A,E]2 [E,G,E]2 | %11
 [A,,A,]3 [A,,A,] [A,,A,]4 | D,4 D,2 D,2 | A,,3 A,, A,,4 | D,4 E,2 E,2 | A,,6 z2 |] %16

